assets/wallet-icons/squarelink.svg

<svg width="40px" height="40px" viewBox="0 0 88 88" version="1.1" xmlns="http://www.w3.org/2000/svg" xmlns:xlink="http://www.w3.org/1999/xlink">
<g id="Identity" stroke="none" stroke-width="1" fill="none" fill-rule="evenodd">
    <g id="Artboard" transform="translate(-11.000000, -220.000000)">
        <g id="Group" transform="translate(11.508925, 220.556971)">
            <circle id="Oval" fill="#313D53" cx="43.4910749" cy="43.4910749" r="43.4910749"></circle>
            <path d="M26.9807751,53.5120539 L26.9807751,56.7049531 C26.9807751,58.9140921 28.7716361,60.7049531 30.9807751,60.7049531 L56.0422363,60.7049531 C58.2513753,60.7049531 60.0422363,58.9140921 60.0422363,56.7049531 L60.0422363,30.2473297 C60.0422363,28.0381907 58.2513753,26.2473297 56.0422363,26.2473297 L26.9807751,26.2473297 L26.9807751,47.8897807 L26.9807751,53.5120539 Z M20.4910749,20.4430293 L56.4910749,20.4430293 C62.0139224,20.4430293 66.4910749,24.9201818 66.4910749,30.4430293 L66.4910749,56.5391205 C66.4910749,62.061968 62.0139224,66.5391205 56.4910749,66.5391205 L30.4910749,66.5391205 C24.9682274,66.5391205 20.4910749,62.061968 20.4910749,56.5391205 L20.4910749,20.4430293 Z M33.9720552,26.2473297 L40.419051,26.2473297 L40.419051,41.0316245 L40.419051,49.5120539 C40.419051,51.7211929 38.62819,53.5120539 36.419051,53.5120539 L26.9807751,53.5120539 L26.9807751,47.8897807 L33.9720552,47.8897807 L33.9720552,26.2473297 Z M33.9720552,26.2473297 L40.419051,26.2473297 L33.9720552,26.2473297 Z M53.0509562,60.7049531 L46.6039605,60.7049531 L46.6039605,45.9206584 L46.6039605,37.4402289 C46.6039605,35.2310899 48.3948215,33.4402289 50.6039605,33.4402289 L60.0422363,33.4402289 L60.0422363,39.0625021 L53.0509562,39.0625021 L53.0509562,60.7049531 Z M46.6039605,60.7049531 L53.0509562,60.7049531 L46.6039605,60.7049531 Z M60.0422363,39.0625021 L60.0422363,33.4402289 L60.0422363,39.0625021 Z" id="Icon-Blue" fill="#E8EEFF"></path>
        </g>
    </g>
</g>
</svg>

<svg width="40" height="40" viewBox="0 0 88 88" xmlns="http://www.w3.org/2000/svg">
    <g transform="translate(.509 .557)" fill="none" fill-rule="evenodd">
        <circle fill="#313D53" cx="43.491" cy="43.491" r="43.491"/>
        <path d="M26.98 53.512v3.193a4 4 0 004 4h25.062a4 4 0 004-4V30.247a4 4 0 00-4-4H26.981v27.265zm-6.489-33.069h36c5.523 0 10 4.477 10 10v26.096c0 5.523-4.477 10-10 10h-26c-5.523 0-10-4.477-10-10V20.443zm13.481 5.804h6.447v23.265a4 4 0 01-4 4h-9.438V47.89h6.991V26.247zm0 0h6.447-6.447zm19.079 34.458h-6.447V37.441a4 4 0 014-4h9.438v5.622h-6.991v21.642zm-6.447 0h6.447-6.447zm13.438-21.642V33.44v5.623z" fill="#E8EEFF"/>
    </g>
</svg>
